X:21
T: Reel des Jeunes Maries
M: 4/4
L: 1/8
O: French Canadian
K: D
|:"D"D2FD FAde | fafd A2ef | "G"gfed "A7"cABc | "D"dcde "A7"fdAF |
"D"D2FD FAde | fafd A2ef | "G"gfed "A7"cABc |1"D"dfec d2z2:|2"D"dfec d2fg||
|:"D"a2fd Adfa | "A7"g2ec Acef | "Em"g2ec "A7"Aceg | "D"fedf "A7"eAdf |
"D"a2fd Adfa | "A7"g2ec Acef | "Em"g2ec "A7"Aceg |1"D"fd"A7"ec "D"d2A2 :|2 "D"fd"A7"ec "D"d4 |]
